X:0081
M:6/8
L:1/8
Q:3/8=120
K:A Mixolydian
f   |gfe edB|gfg GAB|gfe edB|dBA A2
f   |gfe edB|gfg a2b|gfe efg|dBA A2:|
c   |d2B d2B|gfg a2b|gfe efg|dBA A2:|
e/f/|gdB gdB|gfg GAB|gdB gdB|ecA A2
e/f/|gdB gdB|gfg a2b|gfe efg|dBA A2:|

